img/guarantee/icon3.svg

<svg width="57" height="57" viewBox="0 0 57 57" fill="none" xmlns="http://www.w3.org/2000/svg">
<circle cx="28.5" cy="28.5" r="28" stroke="#009CA1"/>
<path d="M43.8221 37.6131L43.1281 37.3068C43.1011 37.2096 43.0717 37.1164 43.0402 37.0256L43.427 36.359C43.5158 36.2054 43.5173 36.0164 43.4309 35.8614C43.2275 35.4991 42.9849 35.1602 42.7074 34.8508C42.5859 34.714 42.3993 34.6547 42.2211 34.6962L41.4908 34.8631C41.4191 34.8071 41.3455 34.7528 41.2699 34.7001L41.1993 33.9257C41.183 33.7469 41.0726 33.5905 40.9097 33.5153C40.5372 33.3414 40.1462 33.2101 39.744 33.1241C39.5649 33.0859 39.3792 33.1488 39.2601 33.2881L38.7487 33.8819H38.5033L37.9918 33.2881C37.8731 33.1483 37.6871 33.0853 37.508 33.1241C37.1059 33.2101 36.7148 33.3413 36.3422 33.5153C36.1793 33.5905 36.0689 33.747 36.0527 33.9257L35.982 34.7001C35.9064 34.7526 35.8328 34.8069 35.7611 34.8631L35.0308 34.6962C34.8526 34.655 34.6662 34.7142 34.5445 34.8508C34.267 35.1601 34.0246 35.4993 33.8215 35.8619C33.7351 36.0167 33.7366 36.2056 33.8254 36.359L34.2117 37.0251C34.1802 37.1159 34.1509 37.2098 34.1238 37.3068L33.4298 37.6131C33.2475 37.6933 33.1298 37.8737 33.13 38.0729V39.2106C33.1298 39.4098 33.2475 39.5902 33.4298 39.6704L34.1238 39.9767C34.1508 40.0739 34.1802 40.1671 34.2117 40.2579L33.8249 40.9245C33.7361 41.0781 33.7346 41.2671 33.8209 41.4222C34.0244 41.7845 34.267 42.1233 34.5444 42.4327C34.6661 42.5695 34.8529 42.6289 35.0313 42.5873L35.7606 42.4199C35.8323 42.4764 35.9063 42.5309 35.9819 42.5834L36.0526 43.3579C36.0688 43.5366 36.1792 43.6931 36.3421 43.7682C36.7147 43.9422 37.1057 44.0734 37.5078 44.1594C37.687 44.1974 37.8726 44.1346 37.9917 43.9955L38.5032 43.4016H38.7485L39.26 43.9955C39.3554 44.1065 39.4945 44.1703 39.6409 44.1702C39.6755 44.1702 39.7101 44.1666 39.7439 44.1594C40.1461 44.0734 40.5371 43.9423 40.9097 43.7682C41.0726 43.6931 41.183 43.5366 41.1992 43.3579L41.2698 42.5834C41.3454 42.5309 41.419 42.4766 41.4908 42.4204L42.2211 42.5873C42.3992 42.6289 42.5859 42.5695 42.7074 42.4327C42.9847 42.1234 43.2274 41.7845 43.4308 41.4222C43.5173 41.2671 43.5157 41.0781 43.4269 40.9245L43.0402 40.258C43.0716 40.1672 43.1011 40.0739 43.128 39.9768L43.822 39.6705C44.0043 39.5902 44.122 39.4099 44.1219 39.2106V38.0729C44.1221 37.8738 44.0044 37.6933 43.8221 37.6131ZM42.4979 39.1561C42.3523 39.2202 42.2457 39.3495 42.2108 39.5046C42.1649 39.7117 42.1015 39.9144 42.0213 40.1107C41.9614 40.2556 41.9722 40.4202 42.0508 40.5559L42.4085 41.1724C42.3276 41.298 42.2402 41.4204 42.1465 41.5395L41.4731 41.3854C41.3155 41.3486 41.1498 41.3907 41.0289 41.4983C40.8724 41.6357 40.7046 41.7596 40.5273 41.8688C40.3929 41.9518 40.3053 42.0933 40.2908 42.2506L40.2255 42.9682C40.0905 43.0212 39.955 43.0673 39.8201 43.1057L39.3597 42.5712C39.2643 42.4603 39.1252 42.3965 38.9789 42.3964H38.2731C38.1268 42.3965 37.9878 42.4604 37.8923 42.5712L37.432 43.1057C37.297 43.0674 37.1615 43.0212 37.0266 42.9682L36.9613 42.2506C36.9468 42.0933 36.8592 41.9518 36.7247 41.8688C36.5475 41.7597 36.3799 41.6357 36.2236 41.4983C36.1021 41.391 35.9364 41.3487 35.7784 41.3849L35.1056 41.539C35.0118 41.4207 34.9244 41.298 34.8435 41.1724L35.2012 40.5559C35.2797 40.4202 35.2906 40.2557 35.2307 40.1107C35.1505 39.9144 35.0871 39.7117 35.0412 39.5046C35.0062 39.3495 34.8997 39.2202 34.7541 39.1561L34.1352 38.8832V38.4003L34.7541 38.1274C34.8997 38.0634 35.0063 37.9341 35.0412 37.7789C35.0872 37.5716 35.1506 37.3685 35.2307 37.1718C35.2906 37.0271 35.2798 36.8627 35.2012 36.7272L34.8439 36.1107C34.9244 35.9855 35.0117 35.8629 35.1055 35.744L35.7789 35.8981C35.9365 35.9344 36.1019 35.8923 36.223 35.7852C36.3796 35.6479 36.5473 35.524 36.7246 35.4147C36.859 35.3317 36.9467 35.1902 36.9612 35.0329L37.0265 34.3153C37.1614 34.2623 37.2969 34.2162 37.4318 34.1779L37.8922 34.7123C37.9877 34.8233 38.1267 34.887 38.2731 34.8871H38.9789C39.1252 34.887 39.2642 34.8232 39.3597 34.7123L39.8201 34.1779C39.955 34.2161 40.0905 34.2623 40.2255 34.3153L40.2908 35.0329C40.3053 35.1902 40.3929 35.3317 40.5273 35.4147C40.7046 35.524 40.8724 35.6479 41.0289 35.7852C41.1501 35.8924 41.3155 35.9344 41.4731 35.8981L42.1465 35.744C42.2402 35.8629 42.3276 35.9852 42.4085 36.1112L42.0508 36.7277C41.9723 36.8634 41.9614 37.0279 42.0213 37.1728C42.1015 37.3691 42.1649 37.5719 42.2108 37.7789C42.2458 37.9341 42.3524 38.0634 42.4979 38.1274L43.1168 38.4003V38.8832L42.4979 39.1561Z" fill="url(#paint0_linear_3132_3810)"/>
<path d="M38.6267 36.1297C37.2388 36.1297 36.1138 37.2548 36.1138 38.6426C36.1138 40.0304 37.2388 41.1555 38.6267 41.1555C40.0145 41.1555 41.1396 40.0304 41.1396 38.6426C41.1379 37.2555 40.0139 36.1314 38.6267 36.1297ZM38.6267 40.1504C37.794 40.1504 37.1189 39.4753 37.1189 38.6426C37.1189 37.8099 37.794 37.1349 38.6267 37.1349C39.4594 37.1349 40.1344 37.8099 40.1344 38.6426C40.1335 39.4749 39.459 40.1495 38.6267 40.1504Z" fill="url(#paint1_linear_3132_3810)"/>
<path d="M28.0726 16.0234C23.9091 16.0234 20.5339 19.3986 20.5339 23.5621C20.5384 27.7237 23.911 31.0962 28.0726 31.1008C32.236 31.1008 35.6112 27.7255 35.6112 23.5621C35.6112 19.3986 32.236 16.0234 28.0726 16.0234ZM21.8107 25.4246C20.7813 21.9669 22.7498 18.3295 26.2075 17.3001C26.8128 17.1199 27.441 17.0284 28.0726 17.0285C28.7034 17.0291 29.3307 17.1215 29.935 17.3026C29.8122 17.3835 29.6846 17.4618 29.571 17.5473C29.399 17.6768 29.3287 17.9014 29.3958 18.1059L29.6265 18.8082C29.5318 18.8976 29.439 18.9903 29.3497 19.085L28.6479 18.8544C28.4436 18.7883 28.2199 18.8584 28.0898 19.0291C27.7185 19.5167 27.4081 20.0479 27.1656 20.611C27.0812 20.8089 27.1323 21.0387 27.2927 21.1823L27.8517 21.6828C27.8134 21.808 27.7796 21.9342 27.7496 22.0603L27.0213 22.2135C26.7887 22.2624 26.6223 22.4676 26.6222 22.7052V24.4191C26.6223 24.6567 26.7887 24.8619 27.0213 24.9108L27.7496 25.064C27.7796 25.1902 27.8134 25.3163 27.8512 25.4415L27.2927 25.9421C27.1323 26.0857 27.0811 26.3154 27.1656 26.5134C27.408 27.076 27.718 27.607 28.0887 28.0948C28.2182 28.2667 28.4428 28.3372 28.6473 28.27L29.3496 28.0393C29.439 28.134 29.5317 28.2267 29.6264 28.316L29.3957 29.0179C29.3288 29.2221 29.3989 29.4464 29.5704 29.576C29.6841 29.6618 29.8121 29.7405 29.9351 29.8216C26.4774 30.8509 22.84 28.8824 21.8107 25.4246ZM31.1007 29.3461C30.883 29.235 30.6714 29.1125 30.4667 28.979L30.6841 28.3175C30.7479 28.1229 30.6876 27.909 30.5315 27.7766C30.2995 27.5805 30.0843 27.3655 29.888 27.1337C29.7554 26.9782 29.542 26.9181 29.3476 26.9816L28.684 27.2C28.5192 26.9579 28.3708 26.705 28.2399 26.4431L28.767 25.9705C28.9196 25.834 28.9741 25.6185 28.9049 25.4257C28.8019 25.1412 28.7229 24.8484 28.6688 24.5506C28.6325 24.3494 28.4778 24.1902 28.2776 24.1482L27.6273 24.0113V23.1131L28.2776 22.9761C28.4778 22.934 28.6325 22.7749 28.6688 22.5737C28.7231 22.2756 28.802 21.9826 28.9049 21.6976C28.9741 21.5049 28.9196 21.2897 28.767 21.1533L28.2399 20.6812C28.371 20.4193 28.5193 20.1665 28.684 19.9243L29.3481 20.1428C29.5426 20.2061 29.7561 20.1459 29.8889 19.9901C30.085 19.7582 30.3 19.543 30.5318 19.3467C30.6876 19.2141 30.7477 19.0006 30.684 18.8063L30.4665 18.1447C30.6714 18.0115 30.8829 17.8892 31.1005 17.7781C31.7876 18.1409 32.4049 18.6227 32.9236 19.2013C30.5152 19.8488 29.0876 22.326 29.735 24.7345C30.1532 26.2899 31.3682 27.5049 32.9236 27.923C32.405 28.5014 31.7878 28.9833 31.1007 29.3461ZM30.6213 23.0622C30.8431 21.5206 32.0542 20.3095 33.5958 20.0877C34.9429 22.2081 34.9429 24.916 33.5958 27.0364C31.6769 26.7604 30.3452 24.981 30.6213 23.0622Z" fill="url(#paint2_linear_3132_3810)"/>
<path d="M41.3124 22.5899L40.7096 22.3238C40.689 22.2517 40.6674 22.181 40.6438 22.1118L40.9801 21.5322C41.0689 21.3787 41.0704 21.1899 40.984 21.035C40.7994 20.7058 40.5792 20.3978 40.3273 20.1167C40.2055 19.9796 40.0185 19.9202 39.84 19.9616L39.2069 20.1064C39.1533 20.0652 39.0989 20.0249 39.0434 19.9862L38.9816 19.3123C38.9649 19.134 38.8548 18.978 38.6924 18.9025C38.3539 18.744 37.9984 18.6246 37.6329 18.5467C37.4596 18.5102 37.2799 18.5678 37.1602 18.6983L36.6055 19.3011C34.2643 14.5822 28.5409 12.6547 23.822 14.9959C19.1031 17.3371 17.1755 23.0604 19.5167 27.7794C19.6566 28.0614 19.8104 28.3363 19.9775 28.6031L18.6331 30.2836C18.5476 30.391 18.5095 30.5284 18.5275 30.6645C18.5455 30.8007 18.6188 30.9235 18.7303 31.0041L19.8217 31.7978L14.1123 38.8244C13.9372 39.0405 13.9705 39.3575 14.1865 39.5326C14.1872 39.5331 14.1878 39.5336 14.1884 39.5341L16.7012 41.5444C16.917 41.7166 17.2312 41.6829 17.4055 41.4689L23.2422 34.2855L24.2586 35.0247C24.4758 35.1827 24.7788 35.1421 24.9466 34.9324L26.5148 32.972C30.6508 33.6889 34.7632 31.5888 36.6075 27.8179L37.1572 28.4229C37.2525 28.5277 37.3876 28.5874 37.5292 28.5873C37.5639 28.5874 37.5984 28.5837 37.6324 28.5765C37.9981 28.4986 38.3538 28.3791 38.6924 28.2206C38.8548 28.1452 38.9649 27.9891 38.9816 27.8109L39.0434 27.137C39.0989 27.0977 39.1533 27.0574 39.2063 27.0168L39.84 27.1616C40.0185 27.2033 40.2057 27.1438 40.3273 27.0065C40.579 26.7254 40.7989 26.4176 40.9835 26.0887C41.0703 25.9338 41.069 25.7446 40.9801 25.591L40.6438 25.0113C40.6674 24.9421 40.689 24.8714 40.7096 24.7993L41.3124 24.5333C41.4947 24.4531 41.6123 24.2727 41.6122 24.0734V23.0496C41.6123 22.8505 41.4947 22.6701 41.3124 22.5899ZM16.9398 40.448L15.2117 39.0654L20.6361 32.39L22.4279 33.6936L16.9398 40.448ZM24.4613 33.9297L19.7467 30.5005L20.5786 29.4613C21.8129 31.0289 23.5063 32.1713 25.422 32.7286L24.4613 33.9297ZM28.0721 32.1054C23.3535 32.1054 19.5283 28.2802 19.5283 23.5616C19.5336 18.8451 23.3557 15.023 28.0721 15.0178C32.7907 15.0178 36.616 18.8429 36.616 23.5616C36.616 28.2802 32.7907 32.1054 28.0721 32.1054ZM40.6071 23.7462L40.0805 23.9783C39.9348 24.0423 39.8283 24.1716 39.7934 24.3268C39.7524 24.5108 39.6963 24.691 39.6255 24.8656C39.5656 25.0102 39.5765 25.1744 39.655 25.3098L39.9612 25.8379C39.8998 25.9316 39.8343 26.0234 39.7644 26.1132L39.1901 25.9817C39.0324 25.9447 38.8666 25.9866 38.7455 26.0941C38.6064 26.2163 38.4573 26.3266 38.2998 26.4239C38.166 26.507 38.0788 26.6479 38.0643 26.8048L38.0078 27.4198C37.9053 27.4595 37.8024 27.4944 37.6991 27.5243L37.043 26.8019C37.8149 24.7075 37.8137 22.4064 37.0398 20.3127L37.6977 19.5984C37.8008 19.6283 37.9048 19.6636 38.0079 19.7034L38.0643 20.3184C38.079 20.4754 38.1663 20.6166 38.3004 20.6997C38.4578 20.7967 38.6068 20.9068 38.7455 21.029C38.8668 21.1362 39.0325 21.1782 39.1902 21.1414L39.7644 21.0099C39.8341 21.0997 39.8998 21.1915 39.9613 21.2852L39.655 21.8133C39.5765 21.9487 39.5657 22.1129 39.6256 22.2575C39.6964 22.4321 39.7525 22.6124 39.7934 22.7963C39.8284 22.9515 39.935 23.0808 40.0805 23.1448L40.6072 23.3769L40.6071 23.7462Z" fill="url(#paint3_linear_3132_3810)"/>
<defs>
<linearGradient id="paint0_linear_3132_3810" x1="14" y1="14" x2="44.7739" y2="44.8751" gradientUnits="userSpaceOnUse">
<stop stop-color="#0ABD92"/>
<stop offset="1" stop-color="#009DB8"/>
</linearGradient>
<linearGradient id="paint1_linear_3132_3810" x1="14" y1="14" x2="44.7739" y2="44.8751" gradientUnits="userSpaceOnUse">
<stop stop-color="#0ABD92"/>
<stop offset="1" stop-color="#009DB8"/>
</linearGradient>
<linearGradient id="paint2_linear_3132_3810" x1="14" y1="14" x2="44.7739" y2="44.8751" gradientUnits="userSpaceOnUse">
<stop stop-color="#0ABD92"/>
<stop offset="1" stop-color="#009DB8"/>
</linearGradient>
<linearGradient id="paint3_linear_3132_3810" x1="14" y1="14" x2="44.7739" y2="44.8751" gradientUnits="userSpaceOnUse">
<stop stop-color="#0ABD92"/>
<stop offset="1" stop-color="#009DB8"/>
</linearGradient>
</defs>
</svg>

<svg width="57" height="57" fill="none" xmlns="http://www.w3.org/2000/svg"><circle cx="28.5" cy="28.5" r="28" stroke="#009CA1"/><path d="M43.822 37.613l-.694-.306a4.664 4.664 0 00-.088-.281l.387-.667a.504.504 0 00.004-.498 5.673 5.673 0 00-.724-1.01.499.499 0 00-.486-.155l-.73.167a5.055 5.055 0 00-.221-.163l-.07-.774a.502.502 0 00-.29-.41 5.45 5.45 0 00-1.166-.392.5.5 0 00-.484.164l-.511.594h-.246l-.511-.594a.497.497 0 00-.484-.164 5.448 5.448 0 00-1.166.391.502.502 0 00-.29.41l-.07.775c-.076.053-.15.107-.22.163l-.731-.167a.5.5 0 00-.486.155c-.278.31-.52.648-.724 1.01a.503.503 0 00.004.498l.387.666a4.8 4.8 0 00-.088.282l-.694.306c-.182.08-.3.26-.3.46v1.138c0 .199.117.38.3.46l.694.306c.027.097.056.19.088.28l-.387.668a.504.504 0 00-.004.497c.203.363.446.701.723 1.01a.5.5 0 00.487.155l.73-.167c.071.056.145.11.22.163l.072.775a.502.502 0 00.29.41c.372.174.763.305 1.165.391a.5.5 0 00.484-.163l.511-.594h.245l.512.593a.502.502 0 00.484.164 5.44 5.44 0 001.166-.39.502.502 0 00.29-.411l.07-.775c.075-.052.149-.106.22-.163l.731.167a.499.499 0 00.486-.154c.278-.31.52-.648.724-1.01a.504.504 0 00-.004-.498l-.387-.667c.032-.09.061-.184.088-.281l.694-.306c.182-.08.3-.261.3-.46v-1.138c0-.2-.118-.38-.3-.46zm-1.324 1.543a.501.501 0 00-.287.349 3.77 3.77 0 01-.19.606.502.502 0 00.03.445l.357.616a4.78 4.78 0 01-.261.367l-.674-.154a.498.498 0 00-.444.113 3.706 3.706 0 01-.502.37.503.503 0 00-.236.383l-.066.717a4.3 4.3 0 01-.405.138l-.46-.535a.503.503 0 00-.381-.175h-.706a.503.503 0 00-.38.175l-.461.535a4.38 4.38 0 01-.405-.138l-.066-.717a.503.503 0 00-.236-.382 3.686 3.686 0 01-.501-.37.503.503 0 00-.446-.114l-.672.154a4.596 4.596 0 01-.263-.367l.358-.616c.079-.136.09-.3.03-.445a3.745 3.745 0 01-.19-.606.501.501 0 00-.287-.349l-.619-.273V38.4l.62-.273a.5.5 0 00.286-.348c.046-.207.11-.41.19-.607a.503.503 0 00-.03-.445l-.357-.616c.08-.125.168-.248.261-.367l.674.154a.5.5 0 00.444-.113 3.73 3.73 0 01.502-.37.503.503 0 00.236-.382l.066-.718c.134-.053.27-.099.405-.137l.46.534a.503.503 0 00.381.175h.706a.503.503 0 00.38-.175l.461-.534c.135.038.27.084.405.137l.066.718a.503.503 0 00.236.382c.178.109.345.233.502.37a.5.5 0 00.444.113l.674-.154c.093.119.18.241.261.367l-.357.617a.504.504 0 00-.03.445c.08.196.144.399.19.606a.501.501 0 00.287.348l.619.273v.483l-.62.273z" fill="url(#paint0_linear_3132_3810)"/><path d="M38.627 36.13a2.513 2.513 0 100 5.025 2.513 2.513 0 000-5.025zm0 4.02a1.508 1.508 0 110-3.015 1.508 1.508 0 010 3.015z" fill="url(#paint1_linear_3132_3810)"/><path d="M28.073 16.023a7.539 7.539 0 00-7.54 7.54 7.547 7.547 0 007.54 7.538 7.539 7.539 0 000-15.078zm-6.262 9.402a6.532 6.532 0 018.124-8.122c-.123.08-.25.159-.364.244a.503.503 0 00-.175.559l.23.702a7.21 7.21 0 00-.276.277l-.702-.23a.506.506 0 00-.558.174 7.522 7.522 0 00-.924 1.582.502.502 0 00.127.571l.559.5a6.183 6.183 0 00-.102.378l-.729.154a.503.503 0 00-.399.491v1.714c0 .238.167.443.4.492l.728.153c.03.126.063.252.101.378l-.558.5a.502.502 0 00-.127.571c.242.563.552 1.094.923 1.582.13.172.354.242.558.175l.703-.23c.089.094.182.187.276.276l-.23.702a.503.503 0 00.174.558c.114.086.242.165.365.246a6.532 6.532 0 01-8.124-4.397zm9.29 3.921a6.913 6.913 0 01-.634-.367l.217-.662a.504.504 0 00-.152-.54 5.472 5.472 0 01-.644-.643.504.504 0 00-.54-.152l-.664.218a6.546 6.546 0 01-.444-.757l.527-.473a.503.503 0 00.138-.544 5.413 5.413 0 01-.236-.875.502.502 0 00-.391-.403l-.65-.137v-.898l.65-.137a.502.502 0 00.39-.402 5.53 5.53 0 01.237-.876.502.502 0 00-.138-.545l-.527-.472c.131-.262.28-.515.444-.757l.664.219a.505.505 0 00.54-.153 5.48 5.48 0 01.644-.643.504.504 0 00.152-.54l-.218-.662c.205-.133.417-.256.634-.367a6.565 6.565 0 011.824 1.423 4.516 4.516 0 000 8.722 6.566 6.566 0 01-1.823 1.423zm-.48-6.284a3.51 3.51 0 012.975-2.974 6.479 6.479 0 010 6.948 3.51 3.51 0 01-2.975-3.974z" fill="url(#paint2_linear_3132_3810)"/><path d="M41.312 22.59l-.602-.266a4.41 4.41 0 00-.066-.212l.336-.58a.503.503 0 00.004-.497 5.151 5.151 0 00-.657-.918.5.5 0 00-.487-.155l-.633.144a4.373 4.373 0 00-.164-.12l-.061-.674a.504.504 0 00-.29-.41 4.914 4.914 0 00-1.06-.355.501.501 0 00-.472.151l-.554.603a9.538 9.538 0 10-16.629 9.302l-1.344 1.68a.505.505 0 00.097.721l1.092.794-5.71 7.026a.504.504 0 00.075.709l.001.001 2.513 2.01c.216.173.53.139.704-.075l5.837-7.184 1.017.74c.217.158.52.117.688-.093l1.568-1.96a9.44 9.44 0 0010.093-5.154l.55.605a.502.502 0 00.474.154 4.917 4.917 0 001.06-.356.504.504 0 00.29-.41l.061-.674a5.4 5.4 0 00.163-.12l.634.145a.5.5 0 00.487-.155c.252-.282.472-.59.657-.918a.503.503 0 00-.004-.498l-.336-.58c.023-.069.045-.14.066-.212l.602-.266a.5.5 0 00.3-.46V23.05a.5.5 0 00-.3-.46zM16.94 40.448l-1.728-1.383 5.424-6.675 1.792 1.304-5.488 6.754zm7.521-6.518l-4.714-3.43.832-1.039a9.565 9.565 0 004.843 3.268l-.96 1.2zm3.611-1.825a8.544 8.544 0 01-8.544-8.543 8.553 8.553 0 018.544-8.544 8.544 8.544 0 110 17.087zm12.535-8.359l-.526.232a.5.5 0 00-.288.349 3.403 3.403 0 01-.167.539.502.502 0 00.029.444l.306.528a4.159 4.159 0 01-.197.275l-.574-.131a.498.498 0 00-.444.112c-.14.122-.289.233-.446.33a.503.503 0 00-.236.38l-.056.616a3.74 3.74 0 01-.309.104l-.656-.722a9.37 9.37 0 00-.003-6.49l.658-.714c.103.03.207.066.31.105l.056.615a.504.504 0 00.236.382c.158.097.307.207.446.329a.5.5 0 00.444.112l.574-.131c.07.09.136.181.197.275l-.306.528a.502.502 0 00-.03.445c.071.174.127.354.168.538a.501.501 0 00.288.349l.526.232v.37z" fill="url(#paint3_linear_3132_3810)"/><defs><linearGradient id="paint0_linear_3132_3810" x1="14" y1="14" x2="44.774" y2="44.875" gradientUnits="userSpaceOnUse"><stop stop-color="#0ABD92"/><stop offset="1" stop-color="#009DB8"/></linearGradient><linearGradient id="paint1_linear_3132_3810" x1="14" y1="14" x2="44.774" y2="44.875" gradientUnits="userSpaceOnUse"><stop stop-color="#0ABD92"/><stop offset="1" stop-color="#009DB8"/></linearGradient><linearGradient id="paint2_linear_3132_3810" x1="14" y1="14" x2="44.774" y2="44.875" gradientUnits="userSpaceOnUse"><stop stop-color="#0ABD92"/><stop offset="1" stop-color="#009DB8"/></linearGradient><linearGradient id="paint3_linear_3132_3810" x1="14" y1="14" x2="44.774" y2="44.875" gradientUnits="userSpaceOnUse"><stop stop-color="#0ABD92"/><stop offset="1" stop-color="#009DB8"/></linearGradient></defs></svg>
